remix/System/eye-line.svg

<svg viewBox="0 0 24 24" fill="currentColor" xmlns="http://www.w3.org/2000/svg"><path d="M12.0003 3C17.3924 3 21.8784 6.87976 22.8189 12C21.8784 17.1202 17.3924 21 12.0003 21C6.60812 21 2.12215 17.1202 1.18164 12C2.12215 6.87976 6.60812 3 12.0003 3ZM12.0003 19C16.2359 19 19.8603 16.052 20.7777 12C19.8603 7.94803 16.2359 5 12.0003 5C7.7646 5 4.14022 7.94803 3.22278 12C4.14022 16.052 7.7646 19 12.0003 19ZM12.0003 16.5C9.51498 16.5 7.50026 14.4853 7.50026 12C7.50026 9.51472 9.51498 7.5 12.0003 7.5C14.4855 7.5 16.5003 9.51472 16.5003 12C16.5003 14.4853 14.4855 16.5 12.0003 16.5ZM12.0003 14.5C13.381 14.5 14.5003 13.3807 14.5003 12C14.5003 10.6193 13.381 9.5 12.0003 9.5C10.6196 9.5 9.50026 10.6193 9.50026 12C9.50026 13.3807 10.6196 14.5 12.0003 14.5Z"/></svg>

<svg viewBox="0 0 24 24" xmlns="http://www.w3.org/2000/svg"><path fill="none" d="M0 0h24v24H0Z"/><path d="M12 3c5.39 0 9.878 3.88 10.81 9 -.94 5.12-5.427 9-10.819 9 -5.4 0-9.878-3.88-10.819-9 .94-5.12 5.42-9 10.81-9Zm0 16h-.001c4.2-.01 7.84-2.91 8.77-7v0c-1.12-4.85-5.95-7.88-10.8-6.77 -3.37.77-6 3.39-6.77 6.76h0c.93 4.09 4.57 6.99 8.777 7Zm0-2.5v0c-2.49 0-4.5-2.02-4.5-4.5 0-2.49 2.01-4.5 4.5-4.5v0c2.48 0 4.5 2.01 4.5 4.5 0 2.48-2.02 4.5-4.5 4.5Zm0-2v0c1.38 0 2.5-1.12 2.5-2.5 0-1.39-1.12-2.5-2.5-2.5v0c-1.39 0-2.5 1.11-2.5 2.5 0 1.38 1.11 2.5 2.5 2.5Z"/></svg>
